X:1
T:Cleopatry 
T:Easy Piano
T:Poshlaya Molly
%%score { 1 | 2 }
L:1/8
Q:1/4=157
M:4/4
K:G
V:1 treble nm="Piano"
V:2 bass 
V:1
 g2 B2 A2 B2 | f2 d2 f2 d2 | g2 B2 A2 B2 | f2 d2 f2 d2 | g2 B2 A2 B2 | f2 d2 f2 d2 | g2 B2 A2 B2 | %7
 f2 d2 f2 d2 | g2 B2 A2 B2 | f2 d2 f2 d2 | g2 B2 A2 B2 | f2 d2 f2 d2 | g2 B2 A2 B2 | f2 d2 f2 d2 | %14
 g2 B2 A2 B2 | z4 F2 D2 | G2 G2 GG GG | F3 F FF FF | B,3 B, B,B, B,B, | FF F2 F2 D2 | G2 G2 GG GG | %21
 F4 F F3 | B2 B2 d c3 | F4 F2 D2 | G2 G2 GG GG | F3 F FF FF | B,3 B, B,B, B,B, | FF F2 F2 D2 | %28
 G2 G2 GG GG | F4 F4 | B2 B2 d2 c2- | c2 F6 | g'2 b2 a2 b2 | f'2 d'2 f'2 d'2 | g'2 b2 a2 b2 | %35
 f'2 d'2 f'2 d'2 | g'2 b2 a2 b2 | f'2 d'2 f'2 d'2 | g'2 b2 a2 b2 | f'2 d'2 f'2 d'2 | z3 G GG GF- | %41
 F F2 F FF FB,- | B, B,2 B, B,B, B,F- | F G4 z3 | z3 G GG GF- | F F2 F FF FB,- | %46
 B, B,2 B, B,B, B,F- | F G2 F G2 z2 | z3 c cc cB- | B G2 c cc cB- | B G2 G GG GF- | F B,4 z3 | %52
 B,3 B, B,B, B,F- | F F2 B, B,B, B,G- | G G2 B, B,B, B,G- | G F2 z [Ac][Ac] [Ac][Ac] | %56
 B2 G2 G2 G2 | A2 z2 [Ac][Ac] [Ac][Ac] | B2 G2 G2 G2 | A2 z2 [Ac][Ac] [Ac][Ac] | B2 G2 G2 G2 | %61
 A2 z2 [Ac][Ac] [Ac][Ac] | B2 G2 G2 G2 | A2 z2 AA A2 | G2 GG GG G2 | d2 z2 FF F2 | G2 GG GG G2 | %67
 d2 z2 B,B, B,B, | F2 FB, B,B, B,G- | G G2 B, B,B, B,G- | G F2 G2 F2 z | z4 F2 D2 | G2 G2 GG GG | %73
 F3 F FF FF | B,3 B, B,B, B,B, | FF F2 F2 D2 | G2 G2 GG GG | F4 F F3 | B2 B2 d c3 | F4 F2 D2 | %80
 G2 G2 GG GG | F3 F FF FF | B,3 B, B,B, B,B, | FF F2 F2 D2 | G2 G2 GG GG | F4 F4 | B2 B2 d2 c2- | %87
 c2 F6 | g'2 b2 a2 b2 | f'2 d'2 f'2 d'2 | g'2 b2 a2 b2 | f'2 d'2 f'2 d'2 | g'2 b2 a2 b2 | %93
 f'2 d'2 f'2 d'2 | g'2 b2 a2 b2 | f'2 d'2 F2 D2 | G2 G2 GG GG | F3 F FF FF | B,3 B, B,B, B,B, | %99
 FF F2 F2 D2 | G2 G2 GG GG | F4 F F3 | B2 B2 d c3 | F4 F2 D2 | G2 G2 GG GG | F3 F FF FF | %106
 B,3 B, B,B, B,B, | FF F2 F2 D2 | G2 G2 GG GG | F4 F4 | B2 B2 d2 c2- | c2 F6 | g2 B2 A2 B2 | %113
 F2 D2 F2 D2 | g2 B2 A2 B2 | F2 D2 F2 D2 | g2 B2 A2 B2 | F2 D2 F2 D2 | g2 B2 A2 B2 | F2 D2 F2 D2 |] %120
V:2
 [E,B,]3 [E,B,]2 [E,B,] [E,B,]2 | z2 [CG]4 z2 | [G,D]3 [G,D] [G,D][G,D] [G,D]2 | z2 [DA]3 [DA]3 | %4
 [E,B,]3 [E,B,]2 [E,B,] [E,B,]2 | z2 [CG]4 z2 | [G,D]3 [G,D] [G,D][G,D] [G,D]2 | z2 [DA]3 [DA]3 | %8
 [E,B,]3 [E,B,]2 [E,B,] [E,B,]2 | z2 [CG]4 z2 | [G,D]3 [G,D] [G,D][G,D] [G,D]2 | z2 [DA]3 [DA]3 | %12
 [E,B,]3 [E,B,]2 [E,B,] [E,B,]2 | z2 [CG]4 z2 | [G,D]3 [G,D] [G,D][G,D] [G,D]2 | z8 | %16
 [E,B,]3 [E,B,]2 [E,B,] [E,B,]2 | z2 [C,G,]4 z2 | [G,,D,]3 [G,,D,] [G,,D,][G,,D,] [G,,D,]2 | %19
 z2 [D,A,]3 [D,A,]3 | [E,B,]3 [E,B,]2 [E,B,] [E,B,]2 | z2 [C,G,]4 z2 | %22
 [G,,D,]3 [G,,D,] [G,,D,][G,,D,] [G,,D,]2 | z2 [D,A,]3 [D,A,]3 | [E,B,]3 [E,B,]2 [E,B,] [E,B,]2 | %25
 z2 [C,G,]4 z2 | [G,,D,]3 [G,,D,] [G,,D,][G,,D,] [G,,D,]2 | z2 [D,A,]3 [D,A,]3 | %28
 [E,B,]3 [E,B,]2 [E,B,] [E,B,]2 | z2 [C,G,]4 z2 | [G,,D,]3 [G,,D,] [G,,D,][G,,D,] [G,,D,]2 | %31
 z2 [D,A,]3 [D,A,]3 | [E,B,]3 [E,B,]2 [E,B,] [E,B,]2 | z2 [C,G,]4 z2 | %34
 [G,,D,]3 [G,,D,] [G,,D,][G,,D,] [G,,D,]2 | z2 [D,A,]3 [D,A,]3 | [E,B,]3 [E,B,]2 [E,B,] [E,B,]2 | %37
 z2 [C,G,]4 z2 | [G,,D,]3 [G,,D,] [G,,D,][G,,D,] [G,,D,]2 | z8 | [E,B,]3 [E,B,]2 [E,B,] [E,B,]2 | %41
 z2 [C,G,]4 z2 | [G,,D,]3 [G,,D,] [G,,D,][G,,D,] [G,,D,]2 | z2 [D,A,]3 [D,A,]3 | %44
 [E,B,]3 [E,B,]2 [E,B,] [E,B,]2 | z2 [C,G,]4 z2 | [G,,D,]3 [G,,D,] [G,,D,][G,,D,] [G,,D,]2 | %47
 z2 [D,A,]3 [D,A,]3 | [E,B,]3 [E,B,]2 [E,B,] [E,B,]2 | z2 [C,G,]4 z2 | %50
 [G,,D,]3 [G,,D,] [G,,D,][G,,D,] [G,,D,]2 | z2 [D,A,]3 [D,A,]3 | E,3 E,2 E, E,2 | z2 [C,G,]4 z2 | %54
 [G,,D,]3 [G,,D,] [G,,D,][G,,D,] [G,,D,]2 | z2 [D,A,]3 [D,A,]3 | [E,B,]3 [E,B,]2 [E,B,] [E,B,]2 | %57
 z2 [C,G,]4 z2 | [G,,D,]3 [G,,D,] [G,,D,][G,,D,] [G,,D,]2 | z2 [D,A,]3 [D,A,]3 | %60
 [E,B,]3 [E,B,]2 [E,B,] [E,B,]2 | z2 [C,G,]4 z2 | [G,,D,]3 [G,,D,] [G,,D,][G,,D,] [G,,D,]2 | %63
 z2 [D,A,]3 [D,A,]3 | [E,B,]3 [E,B,]2 [E,B,] [E,B,]2 | z2 [C,G,]4 z2 | %66
 [G,,D,]3 [G,,D,] [G,,D,][G,,D,] [G,,D,]2 | z2 [D,A,]3 [D,A,]3 | E,3 E,2 E, E,2 | z2 [C,G,]4 z2 | %70
 [G,,D,]3 [G,,D,] [G,,D,][G,,D,] [G,,D,]2 | z8 | [E,B,]3 [E,B,]2 [E,B,] [E,B,]2 | z2 [C,G,]4 z2 | %74
 [G,,D,]3 [G,,D,] [G,,D,][G,,D,] [G,,D,]2 | z2 [D,A,]3 [D,A,]3 | [E,B,]3 [E,B,]2 [E,B,] [E,B,]2 | %77
 z2 [C,G,]4 z2 | [G,,D,]3 [G,,D,] [G,,D,][G,,D,] [G,,D,]2 | z2 [D,A,]3 [D,A,]3 | %80
 [E,B,]3 [E,B,]2 [E,B,] [E,B,]2 | z2 [C,G,]4 z2 | [G,,D,]3 [G,,D,] [G,,D,][G,,D,] [G,,D,]2 | %83
 z2 [D,A,]3 [D,A,]3 | [E,B,]3 [E,B,]2 [E,B,] [E,B,]2 | z2 [C,G,]4 z2 | %86
 [G,,D,]3 [G,,D,] [G,,D,][G,,D,] [G,,D,]2 | z2 [D,A,]3 [D,A,]3 | [E,B,]3 [E,B,]2 [E,B,] [E,B,]2 | %89
 z2 [C,G,]4 z2 | [G,,D,]3 [G,,D,] [G,,D,][G,,D,] [G,,D,]2 | z2 [D,A,]3 [D,A,]3 | %92
 [E,B,]3 [E,B,]2 [E,B,] [E,B,]2 | z2 [C,G,]4 z2 | [G,,D,]3 [G,,D,] [G,,D,][G,,D,] [G,,D,]2 | z8 | %96
 E,3 E,2 E, E,2 | z2 C,4 z2 | G,,3 G,, G,,G,, G,,2 | z2 D,3 D,3 | E,3 E,2 E, E,2 | z2 C,4 z2 | %102
 G,,3 G,, G,,G,, G,,2 | z2 D,3 D,3 | [E,B,]3 [E,B,]2 [E,B,] [E,B,]2 | z2 [C,G,]4 z2 | %106
 [G,,D,]3 [G,,D,] [G,,D,][G,,D,] [G,,D,]2 | z2 [D,A,]3 [D,A,]3 | [E,B,]3 [E,B,]2 [E,B,] [E,B,]2 | %109
 z2 [C,G,]4 z2 | [G,,D,]3 [G,,D,] [G,,D,][G,,D,] [G,,D,]2 | z2 [D,A,]3 [D,A,]3 | %112
 [E,B,]3 [E,B,]2 [E,B,] [E,B,]2 | z2 [C,G,]4 z2 | [G,,D,]3 [G,,D,] [G,,D,][G,,D,] [G,,D,]2 | %115
 z2 [D,A,]3 [D,A,]3 | [E,B,]3 [E,B,]2 [E,B,] [E,B,]2 | z2 [C,G,]4 z2 | %118
 [G,,D,]3 [G,,D,] [G,,D,][G,,D,] [G,,D,]2 | z8 |] %120

